app/assets/images/logo.svg

<svg viewBox="0 0 48 48" xmlns="http://www.w3.org/2000/svg"><path d="m41.968 28.944v-.006a17.956 17.956 0 0 0 -3.422-9.531c-.267-.362-.545-.723-.832-1.053l-.006-.007a17.927 17.927 0 0 0 -3.641-3.254 12.629 12.629 0 0 0 .933-4.093 11 11 0 0 0 -22 0c0 5.768 9.762 19.967 10.177 20.568a1 1 0 0 0 1.646 0c.218-.316 3.015-4.384 5.621-9.011a2.822 2.822 0 0 0 .43.55 2.935 2.935 0 0 0 2.126.893h5.814a15.729 15.729 0 0 1 1.049 4h-9.863a1 1 0 0 0 0 2h10a15.463 15.463 0 0 1 -.114 1.888c-.043.382-.1.762-.174 1.139-.023.121-.054.24-.079.361-.055.255-.112.509-.18.761-.038.141-.081.279-.123.419q-.1.345-.22.686-.077.216-.159.429c-.041.107-.087.211-.13.317h-3.821a1 1 0 0 1 0-2 1 1 0 0 0 0-2h-6a.976.976 0 0 1 -.5-.135 1 1 0 0 0 -1 1.731 3.007 3.007 0 0 0 1.5.404h3.171a3 3 0 0 0 2.829 4h2.843a16.159 16.159 0 0 1 -3.538 4.236 15.955 15.955 0 0 1 -18.027 1.764h6.722a3.013 3.013 0 0 0 3-3 3 3 0 0 0 -3-3h-12.847a15.934 15.934 0 0 1 -2.125-7.062c-.019-.31-.028-.628-.028-.938a15.927 15.927 0 0 1 .516-4h6.484a1 1 0 0 0 0-2h-5.823c.08-.194.153-.384.244-.589a15.889 15.889 0 0 1 3.251-4.705 1 1 0 0 0 -1.416-1.412 18.1 18.1 0 0 0 -4.456 7.406 17.853 17.853 0 0 0 -.8 5.3c0 .351.01.712.032 1.058a18 18 0 0 0 29.568 12.706 18.111 18.111 0 0 0 4.8-6.348 17.378 17.378 0 0 0 1.474-5.294 17.554 17.554 0 0 0 .126-2.122c0-.361-.01-.712-.032-1.056zm-17.968 12.056a.976.976 0 0 1 -.306.713.965.965 0 0 1 -.694.287h-9.564c-.1-.083-.186-.169-.279-.254-.2-.181-.389-.364-.575-.554-.131-.133-.257-.269-.382-.406-.172-.189-.341-.38-.5-.576-.057-.069-.112-.14-.168-.21h11.468a1 1 0 0 1 1 1zm0-11.783c-3.113-4.676-9-14.323-9-18.217a9 9 0 0 1 18 0c0 3.894-5.887 13.541-9 18.217zm9.285-12.239a15.993 15.993 0 0 1 1.285 1.022h-1.57c-.065 0-.126.015-.19.019q.248-.525.475-1.041zm-1 4.715a.952.952 0 0 1 -.285-.693 1 1 0 0 1 1-1h3.467c.158.2.319.391.466.59a16.127 16.127 0 0 1 .91 1.392l.009.018h-4.852a.975.975 0 0 1 -.712-.307z"/><path d="m15 30h4a1 1 0 0 0 0-2h-4a3 3 0 0 0 0 6h6a1 1 0 0 0 0-2h-6a1 1 0 0 1 0-2z"/><path d="m24 4a7 7 0 1 0 7 7 7.008 7.008 0 0 0 -7-7zm0 12a5 5 0 1 1 5-5 5.006 5.006 0 0 1 -5 5z"/><g font-family="'Helvetica Neue', Helvetica, Arial-Unicode, Arial, Sans-serif" font-size="5" font-weight="bold"><text y="63">Created by KonKapp</text><text y="68">from the Noun Project</text></g></svg>

<svg xmlns="http://www.w3.org/2000/svg" viewBox="0 0 48 48" x="0px" y="0px"><title>26-global</title><g data-name="Layer 27"><path d="M41.968,28.944v-.006h0a17.956,17.956,0,0,0-3.422-9.531c-.267-.362-.545-.723-.832-1.053l0,0-.006-.007,0,0a17.927,17.927,0,0,0-3.641-3.254A12.629,12.629,0,0,0,35,11a11,11,0,0,0-22,0c0,5.768,9.762,19.967,10.177,20.568a1,1,0,0,0,1.646,0c.218-.316,3.015-4.384,5.621-9.011a2.822,2.822,0,0,0,.43.55A2.935,2.935,0,0,0,33,24h5.814a15.729,15.729,0,0,1,1.049,4H30a1,1,0,0,0,0,2H40a15.463,15.463,0,0,1-.114,1.888c-.043.382-.1.762-.174,1.139-.023.121-.054.24-.079.361-.055.255-.112.509-.18.761-.038.141-.081.279-.123.419q-.1.345-.22.686-.077.216-.159.429c-.041.107-.087.211-.13.317H35a1,1,0,0,1,0-2,1,1,0,0,0,0-2H29a.976.976,0,0,1-.5-.135,1,1,0,0,0-1,1.731A3.007,3.007,0,0,0,29,34h3.171A3,3,0,0,0,35,38h2.843a16.159,16.159,0,0,1-3.538,4.236A15.955,15.955,0,0,1,16.278,44H23a3.013,3.013,0,0,0,3-3,3,3,0,0,0-3-3H10.153a15.934,15.934,0,0,1-2.125-7.062C8.009,30.628,8,30.31,8,30a15.927,15.927,0,0,1,.516-4H15a1,1,0,0,0,0-2H9.177c.08-.194.153-.384.244-.589a15.889,15.889,0,0,1,3.251-4.705,1,1,0,0,0-1.416-1.412A18.1,18.1,0,0,0,6.8,24.7v0h0A17.853,17.853,0,0,0,6,30c0,.351.01.712.032,1.058A18,18,0,0,0,35.6,43.764a18.111,18.111,0,0,0,4.8-6.348,17.378,17.378,0,0,0,1.474-5.294A17.554,17.554,0,0,0,42,30C42,29.639,41.99,29.288,41.968,28.944ZM24,41a.976.976,0,0,1-.306.713A.965.965,0,0,1,23,42H13.436c-.1-.083-.186-.169-.279-.254-.2-.181-.389-.364-.575-.554-.131-.133-.257-.269-.382-.406-.172-.189-.341-.38-.5-.576-.057-.069-.112-.14-.168-.21H23A1,1,0,0,1,24,41Zm0-11.783C20.887,24.541,15,14.894,15,11a9,9,0,0,1,18,0C33,14.894,27.113,24.541,24,29.217Zm9.285-12.239A15.993,15.993,0,0,1,34.57,18H33c-.065,0-.126.015-.19.019Q33.058,17.494,33.285,16.978Zm-1,4.715A.952.952,0,0,1,32,21a1,1,0,0,1,1-1h3.467c.158.2.319.391.466.59a16.127,16.127,0,0,1,.91,1.392l.009.018H33A.975.975,0,0,1,32.288,21.693Z"/><path d="M15,30h4a1,1,0,0,0,0-2H15a3,3,0,0,0,0,6h6a1,1,0,0,0,0-2H15a1,1,0,0,1,0-2Z"/><path d="M24,4a7,7,0,1,0,7,7A7.008,7.008,0,0,0,24,4Zm0,12a5,5,0,1,1,5-5A5.006,5.006,0,0,1,24,16Z"/></g><text x="0" y="63" fill="#000000" font-size="5px" font-weight="bold" font-family="'Helvetica Neue', Helvetica, Arial-Unicode, Arial, Sans-serif">Created by KonKapp</text><text x="0" y="68" fill="#000000" font-size="5px" font-weight="bold" font-family="'Helvetica Neue', Helvetica, Arial-Unicode, Arial, Sans-serif">from the Noun Project</text></svg>
